svgs/regular/bore-hole.svg

<svg xmlns="http://www.w3.org/2000/svg" viewBox="0 0 512 512"><!--! Font Awesome Pro 6.5.1 by @fontawesome - https://fontawesome.com License - https://fontawesome.com/license (Commercial License) Copyright 2023 Fonticons, Inc. --><path d="M256 0c13.3 0 24 10.7 24 24V228.7c23.5 9.5 40 32.5 40 59.3c0 35.3-28.7 64-64 64s-64-28.7-64-64c0-26.9 16.5-49.9 40-59.3V24c0-13.3 10.7-24 24-24zm0 272a16 16 0 1 0 0 32 16 16 0 1 0 0-32zM112 176H80c-17.7 0-32 14.3-32 32V432c0 17.7 14.3 32 32 32H432c17.7 0 32-14.3 32-32V208c0-17.7-14.3-32-32-32H400V288c0 79.5-64.5 144-144 144s-144-64.5-144-144V176zm16-48c17.7 0 32 14.3 32 32V288c0 53 43 96 96 96s96-43 96-96V160c0-17.7 14.3-32 32-32h48c44.2 0 80 35.8 80 80V432c0 44.2-35.8 80-80 80H80c-44.2 0-80-35.8-80-80V208c0-44.2 35.8-80 80-80h48z"/></svg>

<svg xmlns="http://www.w3.org/2000/svg" viewBox="0 0 512 512"><!--! Font Awesome Pro 6.1.1 by @fontawesome - https://fontawesome.com License - https://fontawesome.com/license (Commercial License) Copyright 2022 Fonticons, Inc. --><path d="M280 228.7C303.5 238.1 320 261.1 320 288C320 323.3 291.3 352 256 352C220.7 352 192 323.3 192 288C192 261.1 208.5 238.1 232 228.7V24C232 10.75 242.7 0 256 0C269.3 0 280 10.75 280 24V228.7zM256 304C264.8 304 272 296.8 272 288C272 279.2 264.8 272 256 272C247.2 272 240 279.2 240 288C240 296.8 247.2 304 256 304zM160 128V288C160 341 202.1 384 256 384C309 384 352 341 352 288V128H432C476.2 128 512 163.8 512 208V432C512 476.2 476.2 512 432 512H80C35.82 512 0 476.2 0 432V208C0 163.8 35.82 128 80 128H160zM432 176H400V288C400 367.5 335.5 432 256 432C176.5 432 112 367.5 112 288V176H80C62.33 176 48 190.3 48 208V432C48 449.7 62.33 464 80 464H432C449.7 464 464 449.7 464 432V208C464 190.3 449.7 176 432 176z"/></svg>
